web/themes/custom/surf_main/images/icons/ui-icon-linkedin.svg

<svg fill="none" height="28" viewBox="0 0 28 28" width="28" xmlns="http://www.w3.org/2000/svg"><path clip-rule="evenodd" d="m5.4452 8.13338c1.46097 0 2.64533-1.19391 2.64533-2.66666 0-1.47276-1.18436-2.66667-2.64533-2.66667-1.46098 0-2.64533 1.19391-2.64533 2.66667 0 1.47275 1.18435 2.66666 2.64533 2.66666zm2.15466 2.13322h-4.26666c-.29455 0-.53333.2388-.53333.5334v13.8666c0 .2946.23878.5333.53333.5333h4.26666c.29455 0 .53333-.2387.53333-.5333v-13.8666c0-.2946-.23878-.5334-.53333-.5334zm16.00014 14.9334h-3.2c-.1415 0-.2771-.0562-.3771-.1562-.1001-.1-.1562-.2357-.1562-.3771v-8c0-.7073-.281-1.3855-.7811-1.8856s-1.1784-.7811-1.8856-.7811c-.7073 0-1.3855.281-1.8856.7811s-.7811 1.1783-.7811 1.8856v8c0 .1414-.0562.2771-.1562.3771s-.2357.1562-.3771.1562h-3.2c-.1414 0-.2771-.0562-.3771-.1562s-.1562-.2357-.1562-.3771v-13.8667c0-.1414.0562-.2771.1562-.3771s.2357-.1562.3771-.1562h3.2c.1414 0 .2771.0562.3771.1562s.1562.2357.1562.3771c-.0003.0894.0267.1767.0774.2502s.1228.1297.2064.1611.1749.0364.2615.0143c.0865-.022.1643-.07.2227-.1376.4377-.4494.9648-.8022 1.5472-1.0355.5824-.23337 1.2072-.34207 1.8342-.31914 3.1786 0 5.4506 1.95204 5.4506 5.97334v8.96c0 .1414-.0562.2771-.1562.3771s-.2357.1562-.3771.1562z" fill="#222" fill-rule="evenodd"/></svg>

<svg width="28" height="28" viewBox="0 0 28 28" fill="none" xmlns="http://www.w3.org/2000/svg">
<path fill-rule="evenodd" clip-rule="evenodd" d="M5.4452 8.13338C6.90617 8.13338 8.09053 6.93947 8.09053 5.46672C8.09053 3.99396 6.90617 2.80005 5.4452 2.80005C3.98422 2.80005 2.79987 3.99396 2.79987 5.46672C2.79987 6.93947 3.98422 8.13338 5.4452 8.13338ZM7.59986 10.2666H3.3332C3.03865 10.2666 2.79987 10.5054 2.79987 10.8V24.6666C2.79987 24.9612 3.03865 25.1999 3.3332 25.1999H7.59986C7.89441 25.1999 8.13319 24.9612 8.13319 24.6666V10.8C8.13319 10.5054 7.89441 10.2666 7.59986 10.2666ZM23.6 25.2H20.4C20.2585 25.2 20.1229 25.1438 20.0229 25.0438C19.9228 24.9438 19.8667 24.8081 19.8667 24.6667V16.6667C19.8667 15.9594 19.5857 15.2812 19.0856 14.7811C18.5855 14.281 17.9072 14 17.2 14C16.4927 14 15.8145 14.281 15.3144 14.7811C14.8143 15.2812 14.5333 15.9594 14.5333 16.6667V24.6667C14.5333 24.8081 14.4771 24.9438 14.3771 25.0438C14.2771 25.1438 14.1414 25.2 14 25.2H10.8C10.6586 25.2 10.5229 25.1438 10.4229 25.0438C10.3229 24.9438 10.2667 24.8081 10.2667 24.6667V10.8C10.2667 10.6586 10.3229 10.5229 10.4229 10.4229C10.5229 10.3229 10.6586 10.2667 10.8 10.2667H14C14.1414 10.2667 14.2771 10.3229 14.3771 10.4229C14.4771 10.5229 14.5333 10.6586 14.5333 10.8C14.533 10.8894 14.56 10.9767 14.6107 11.0502C14.6614 11.1237 14.7335 11.1799 14.8171 11.2113C14.9007 11.2427 14.992 11.2477 15.0786 11.2256C15.1651 11.2036 15.2429 11.1556 15.3013 11.088C15.739 10.6386 16.2661 10.2858 16.8485 10.0525C17.4309 9.81913 18.0557 9.71043 18.6827 9.73336C21.8613 9.73336 24.1333 11.6854 24.1333 15.7067V24.6667C24.1333 24.8081 24.0771 24.9438 23.9771 25.0438C23.8771 25.1438 23.7414 25.2 23.6 25.2Z" fill="#222222"/>
</svg>
